X:7812
T:Russian folksong
T:(Petite russie)
C:anon.
O:Russia
Z:Transcribed by Frank Nordberg - http://www.musicaviva.com
F:http://abc.musicaviva.com/tunes/russia/petite-russie/petite-russie-1.abc
M:2/4
L:1/8
K:G
"G"Bd "D"dd|"G"Bd dd|"C"ec "D7"Ac|"G"cB B2|"G"Bd "D"dd|"G"Bd dd|"C"ec "D7"AF|"G"AG G2:|
|:"G"g2 g>f|"C"f>e e2|"D7"de dc|"G"cB B2|"G"g2 g>f|"C"fe e2|"D7"dd ef|"G"a>g g2:|
W:
W:
W:  From Musica Viva - http://www.musicaviva.com
W:  the Internet center for free sheet music downloads.
